X:3586
T:Le Furet
O:england
C:Trad., arr. Chris Layer
S:Hamish Moore's School of Piping
M:2/4
L:1/8
K:D
A2|{g}de {g}f2|{g}d{A}d {g}B2|{g}dc B{g}A|Bc {g}dA:|
|:{g}dc B{g}A|Bc dA|{g}dc B{g}A|Bc {g}dA:|


